apps/scalable/aqualung.svg

<svg xmlns="http://www.w3.org/2000/svg" style="isolation:isolate" width="256" height="256"><defs><filter id="a" width="270.648" height="254.338" x="-7.32" y="2.95" filterUnits="userSpaceOnUse"><feGaussianBlur xmlns="http://www.w3.org/2000/svg" in="SourceGraphic" stdDeviation="4.294"/><feOffset xmlns="http://www.w3.org/2000/svg" dy="4" result="pf_100_offsetBlur"/><feFlood xmlns="http://www.w3.org/2000/svg" flood-opacity=".4"/><feComposite xmlns="http://www.w3.org/2000/svg" in2="pf_100_offsetBlur" operator="in" result="pf_100_dropShadow"/><feBlend xmlns="http://www.w3.org/2000/svg" in="SourceGraphic" in2="pf_100_dropShadow"/></filter></defs><g filter="url(#a)"><linearGradient id="b" x1="-.033" x2="1.033" y1="-.071" y2=".995" gradientTransform="matrix(244.648 0 0 228.338 5.676 11.947)" gradientUnits="userSpaceOnUse"><stop offset="0%" stop-color="#5884f4"/><stop offset="100%" stop-color="#80a3fa"/></linearGradient><path fill="url(#b)" d="M165.685 11.947c74.055 0 84.639 10.557 84.639 84.544v59.251c0 73.986-10.584 84.543-84.639 84.543h-75.37c-74.055 0-84.639-10.557-84.639-84.543V96.491c0-73.987 10.584-84.544 84.639-84.544h75.37z"/></g><path fill="#FFF" d="M5.676 126.116v29.626c0 73.986 10.584 84.543 84.639 84.543h75.37c74.055 0 84.639-10.557 84.639-84.543v-29.626H5.676z" opacity=".1"/><path fill="#FFF" d="M128 11.947v228.338h37.685c74.055 0 84.639-10.557 84.639-84.543V96.491c0-73.987-10.584-84.544-84.639-84.544H128z" opacity=".2"/><g opacity=".4"><linearGradient id="c" x1=".517" x2=".517" y2="1"><stop offset="0%" stop-color="#fff"/><stop offset="12.5%" stop-opacity=".098" stop-color="#fff"/><stop offset="92.5%" stop-opacity=".098"/><stop offset="100%" stop-opacity=".498"/></linearGradient><path fill="none" stroke="url(#c)" stroke-linecap="round" stroke-linejoin="round" stroke-width="4.077" d="M165.685 11.947c74.055 0 84.639 10.557 84.639 84.544v59.251c0 73.986-10.584 84.543-84.639 84.543h-75.37c-74.055 0-84.639-10.557-84.639-84.543V96.491c0-73.987 10.584-84.544 84.639-84.544h75.37z" vector-effect="non-scaling-stroke"/></g><g opacity=".895"><path fill="#EAEAEA" d="M126.5 63v130h4V63h-4zM134.85 102.5v51h3v-51h-3zM142.75 80v96h3V80h-3zM150.75 110v36h3v-36h-3zM158.715 122v12h3v-12h-3zM166.65 126.5v3h3v-3h-3zM118.65 85.5v85h3v-85h-3z" opacity=".895"/><path fill="#EAEAEA" d="M198.55 86v84h3V86h-3z" opacity=".3"/><path fill="#EAEAEA" d="M190.585 89v78h3V89h-3z" opacity=".5"/><path fill="#EAEAEA" d="M182.55 107v42h3v-42h-3z" opacity=".75"/><path fill="#EAEAEA" d="M174.55 110v36h3v-36h-3z" opacity=".9"/><path fill="#EAEAEA" d="M206.55 63v130h3V63h-3zM214.45 89v78h3V89h-3z" opacity=".2"/><path fill="#EAEAEA" d="M222.45 107v42h3v-42h-3z" opacity=".15"/><path fill="#EAEAEA" d="M230.45 110v36h3v-36h-3z" opacity=".25"/><path fill="#EAEAEA" d="M238.35 80v96h3V80h-3z" opacity=".5"/><path fill="#EAEAEA" d="M246.35 122v12h3v-12h-3z" opacity=".7"/><path fill="#EAEAEA" d="M110.65 90.5v75h3v-75h-3zM102.65 108v40h3v-40h-3zM94.65 113v30h3v-30h-3zM86.65 126.5v3h3v-3h-3z" opacity=".895"/><path fill="#EAEAEA" d="M78.65 123v10h3v-10h-3z" opacity=".9"/><path fill="#EAEAEA" d="M70.65 110.5v35h3v-35h-3z" opacity=".75"/><path fill="#EAEAEA" d="M62.65 80.5v95h3v-95h-3zM54.65 103v50h3v-50h-3zM46.65 85.5v85h3v-85h-3zM38.65 63v130h3V63h-3z" opacity=".5"/><path fill="#EAEAEA" d="M30.65 90.5v75h3v-75h-3z" opacity=".895"/><path fill="#EAEAEA" d="M22.65 110.5v35h3v-35h-3z" opacity=".75"/><path fill="#EAEAEA" d="M14.65 123v10h3v-10h-3zM6.65 126.5v3h3v-3h-3z" opacity=".9"/></g><path fill="#333" d="M128.794 56.627c-1.859.015-3.799.066-5.836.15-35.032 1.44-58.278 15.902-66.914 41.629-2.408 7.174-2.709 9.801-2.709 23.596v15.523l-4 2.063c-5.069 2.612-10 7.835-13.205 13.982-2.053 3.937-3.158 6.32-3.158 13.757 0 7.436 1.105 10.039 3.158 13.976 4.392 8.425 11.542 14.431 20.404 17.136 3.91 1.194 12.759 1.146 17.219-.093 7.158-1.989 7.253-3.529.65-10.451-12.09-12.675-14.638-21.72-14.634-51.926.004-30.398 2.563-40.143 13.656-52.006 6.998-7.485 12.126-10.722 23.133-14.609 14.371-5.076 28.455-6.916 41.007-5.358 19.428 2.412 33.017 8.224 43.329 18.535 12.722 12.723 15.335 21.825 15.339 53.438.005 30.257-2.321 38.728-14.093 51.312-6.251 6.682-6.26 6.7-4.145 8.815 1.166 1.166 4.359 2.456 7.098 2.867 14.565 2.184 27.685-4.338 34.455-17.127 2.412-4.558 3.369-6.652 3.371-14.4.002-7.44-.992-9.927-3.045-13.866-3.205-6.147-8.138-11.37-13.207-13.982l-4-2.063v-15.523c0-13.728-.307-16.442-2.664-23.465-6.149-18.318-17.179-29.049-37.195-36.193-11.87-4.236-20.998-5.832-34.014-5.717zm-63.727 80.41c-2.621 0-2.671.161-2.976 9.486-.171 5.218.204 11.969.834 15.002 2.292 11.043 11.858 27.123 17.486 29.397 2.86 1.155 3.312 1.19 5.369.4 2.874-1.103 1.894-3.728-3.537-9.47-9.025-9.544-12.774-19.068-13.861-35.215-.63-9.357-.716-9.6-3.315-9.6zm125.868 0c-2.599 0-2.683.243-3.313 9.6-1.087 16.147-4.838 25.671-13.863 35.215-5.223 5.522-6.401 8.379-3.891 9.433 2.852 1.198 6.842-.625 10.815-4.941 4.951-5.381 10.779-17.034 12.382-24.76.637-3.066 1.017-9.843.846-15.061-.305-9.325-.355-9.486-2.976-9.486z"/></svg>

<svg xmlns="http://www.w3.org/2000/svg" style="isolation:isolate" width="256" height="256" viewBox="0 0 256 256">
 <defs>
  <filter id="vgfQuEHEZxxCbUGwXEW21nKqTsRdAEOs" width="270.648" height="254.338" x="-7.32" y="2.95" filterUnits="userSpaceOnUse">
   <feGaussianBlur xmlns="http://www.w3.org/2000/svg" in="SourceGraphic" stdDeviation="4.294"/>
   <feOffset xmlns="http://www.w3.org/2000/svg" dx="0" dy="4" result="pf_100_offsetBlur"/>
   <feFlood xmlns="http://www.w3.org/2000/svg" flood-opacity=".4"/>
   <feComposite xmlns="http://www.w3.org/2000/svg" in2="pf_100_offsetBlur" operator="in" result="pf_100_dropShadow"/>
   <feBlend xmlns="http://www.w3.org/2000/svg" in="SourceGraphic" in2="pf_100_dropShadow" mode="normal"/>
  </filter>
 </defs>
 <g filter="url(#vgfQuEHEZxxCbUGwXEW21nKqTsRdAEOs)">
  <linearGradient id="_lgradient_37" x1="-.033" x2="1.033" y1="-.071" y2=".995" gradientTransform="matrix(244.648,0,0,228.338,5.676,11.947)" gradientUnits="userSpaceOnUse">
   <stop offset="0%" style="stop-color:rgb(88,132,244)"/>
   <stop offset="100%" style="stop-color:rgb(128,163,250)"/>
  </linearGradient>
  <path fill="url(#_lgradient_37)" d="M 165.685 11.947 C 239.74 11.947 250.324 22.504 250.324 96.491 L 250.324 155.742 C 250.324 229.728 239.74 240.285 165.685 240.285 L 90.315 240.285 C 16.26 240.285 5.676 229.728 5.676 155.742 L 5.676 96.491 C 5.676 22.504 16.26 11.947 90.315 11.947 L 165.685 11.947 Z"/>
 </g>
 <g opacity=".1">
  <path fill="#FFFFFF" d="M 5.676 126.116 L 5.676 155.742 C 5.676 229.728 16.26 240.285 90.315 240.285 L 165.685 240.285 C 239.74 240.285 250.324 229.728 250.324 155.742 L 250.324 126.116 L 5.676 126.116 Z"/>
 </g>
 <g opacity=".2">
  <path fill="#FFFFFF" d="M 128 11.947 L 128 240.285 L 165.685 240.285 C 239.74 240.285 250.324 229.728 250.324 155.742 L 250.324 96.491 C 250.324 22.504 239.74 11.947 165.685 11.947 L 128 11.947 Z"/>
 </g>
 <g opacity=".4">
  <linearGradient id="_lgradient_38" x1=".517" x2=".517" y1="0" y2="1">
   <stop offset="0%" style="stop-color:rgb(255,255,255)"/>
   <stop offset="12.5%" stop-opacity=".098" style="stop-color:rgb(255,255,255)"/>
   <stop offset="92.5%" stop-opacity=".098" style="stop-color:rgb(0,0,0)"/>
   <stop offset="100%" stop-opacity=".498" style="stop-color:rgb(0,0,0)"/>
  </linearGradient>
  <path fill="none" stroke="url(#_lgradient_38)" stroke-linecap="round" stroke-linejoin="round" stroke-width="4.077" d="M 165.685 11.947 C 239.74 11.947 250.324 22.504 250.324 96.491 L 250.324 155.742 C 250.324 229.728 239.74 240.285 165.685 240.285 L 90.315 240.285 C 16.26 240.285 5.676 229.728 5.676 155.742 L 5.676 96.491 C 5.676 22.504 16.26 11.947 90.315 11.947 L 165.685 11.947 Z" vector-effect="non-scaling-stroke"/>
 </g>
 <g>
  <g style="opacity:0.895">
   <g opacity=".895">
    <path fill="#EAEAEA" d="M 126.5 63 C 126.5 65.826 126.5 193 126.5 193 L 130.5 193 L 130.5 63 L 126.5 63 Z"/>
   </g>
   <g opacity=".895">
    <path fill="#EAEAEA" d="M 134.85 102.5 C 134.85 103.609 134.85 153.5 134.85 153.5 L 137.85 153.5 L 137.85 102.5 L 134.85 102.5 Z"/>
   </g>
   <g opacity=".895">
    <path fill="#EAEAEA" d="M 142.75 80 C 142.75 82.087 142.75 176 142.75 176 L 145.75 176 L 145.75 80 L 142.75 80 Z"/>
   </g>
   <g opacity=".895">
    <path fill="#EAEAEA" d="M 150.75 110 C 150.75 110.783 150.75 146 150.75 146 L 153.75 146 L 153.75 110 L 150.75 110 Z"/>
   </g>
   <g opacity=".895">
    <path fill="#EAEAEA" d="M 158.715 122 C 158.715 122.261 158.715 134 158.715 134 L 161.715 134 L 161.715 122 L 158.715 122 Z"/>
   </g>
   <g opacity=".895">
    <path fill="#EAEAEA" d="M 166.65 126.5 C 166.65 126.565 166.65 129.5 166.65 129.5 L 169.65 129.5 L 169.65 126.5 L 166.65 126.5 Z"/>
   </g>
   <g opacity=".895">
    <path fill="#EAEAEA" d="M 118.65 85.5 C 118.65 87.348 118.65 170.5 118.65 170.5 L 121.65 170.5 L 121.65 85.5 L 118.65 85.5 Z"/>
   </g>
   <g opacity=".3">
    <path fill="#EAEAEA" d="M 198.55 86 C 198.55 87.826 198.55 170 198.55 170 L 201.55 170 L 201.55 86 L 198.55 86 Z"/>
   </g>
   <g opacity=".5">
    <path fill="#EAEAEA" d="M 190.585 89 C 190.585 90.696 190.585 167 190.585 167 L 193.585 167 L 193.585 89 L 190.585 89 Z"/>
   </g>
   <g opacity=".75">
    <path fill="#EAEAEA" d="M 182.55 107 C 182.55 107.913 182.55 149 182.55 149 L 185.55 149 L 185.55 107 L 182.55 107 Z"/>
   </g>
   <g opacity=".9">
    <path fill="#EAEAEA" d="M 174.55 110 C 174.55 110.783 174.55 146 174.55 146 L 177.55 146 L 177.55 110 L 174.55 110 Z"/>
   </g>
   <g opacity=".2">
    <path fill="#EAEAEA" d="M 206.55 63 C 206.55 65.826 206.55 193 206.55 193 L 209.55 193 L 209.55 63 L 206.55 63 Z"/>
   </g>
   <g opacity=".2">
    <path fill="#EAEAEA" d="M 214.45 89 C 214.45 90.696 214.45 167 214.45 167 L 217.45 167 L 217.45 89 L 214.45 89 Z"/>
   </g>
   <g opacity=".15">
    <path fill="#EAEAEA" d="M 222.45 107 C 222.45 107.913 222.45 149 222.45 149 L 225.45 149 L 225.45 107 L 222.45 107 Z"/>
   </g>
   <g opacity=".25">
    <path fill="#EAEAEA" d="M 230.45 110 C 230.45 110.783 230.45 146 230.45 146 L 233.45 146 L 233.45 110 L 230.45 110 Z"/>
   </g>
   <g opacity=".5">
    <path fill="#EAEAEA" d="M 238.35 80 C 238.35 82.087 238.35 176 238.35 176 L 241.35 176 L 241.35 80 L 238.35 80 Z"/>
   </g>
   <g opacity=".7">
    <path fill="#EAEAEA" d="M 246.35 122 C 246.35 122.261 246.35 134 246.35 134 L 249.35 134 L 249.35 122 L 246.35 122 Z"/>
   </g>
   <g opacity=".895">
    <path fill="#EAEAEA" d="M 110.65 90.5 C 110.65 92.13 110.65 165.5 110.65 165.5 L 113.65 165.5 L 113.65 90.5 L 110.65 90.5 Z"/>
   </g>
   <g opacity=".895">
    <path fill="#EAEAEA" d="M 102.65 108 C 102.65 108.87 102.65 148 102.65 148 L 105.65 148 L 105.65 108 L 102.65 108 Z"/>
   </g>
   <g opacity=".895">
    <path fill="#EAEAEA" d="M 94.65 113 C 94.65 113.652 94.65 143 94.65 143 L 97.65 143 L 97.65 113 L 94.65 113 Z"/>
   </g>
   <g opacity=".895">
    <path fill="#EAEAEA" d="M 86.65 126.5 C 86.65 126.565 86.65 129.5 86.65 129.5 L 89.65 129.5 L 89.65 126.5 L 86.65 126.5 Z"/>
   </g>
   <g opacity=".9">
    <path fill="#EAEAEA" d="M 78.65 123 C 78.65 123.218 78.65 133 78.65 133 L 81.65 133 L 81.65 123 L 78.65 123 Z"/>
   </g>
   <g opacity=".75">
    <path fill="#EAEAEA" d="M 70.65 110.5 C 70.65 111.262 70.65 145.5 70.65 145.5 L 73.65 145.5 L 73.65 110.5 L 70.65 110.5 Z"/>
   </g>
   <g opacity=".5">
    <path fill="#EAEAEA" d="M 62.65 80.5 C 62.65 82.568 62.65 175.5 62.65 175.5 L 65.65 175.5 L 65.65 80.5 L 62.65 80.5 Z"/>
   </g>
   <g opacity=".5">
    <path fill="#EAEAEA" d="M 54.65 103 C 54.65 104.089 54.65 153 54.65 153 L 57.65 153 L 57.65 103 L 54.65 103 Z"/>
   </g>
   <g opacity=".5">
    <path fill="#EAEAEA" d="M 46.65 85.5 C 46.65 87.351 46.65 170.5 46.65 170.5 L 49.65 170.5 L 49.65 85.5 L 46.65 85.5 Z"/>
   </g>
   <g opacity=".5">
    <path fill="#EAEAEA" d="M 38.65 63 C 38.65 65.831 38.65 193 38.65 193 L 41.65 193 L 41.65 63 L 38.65 63 Z"/>
   </g>
   <g opacity=".895">
    <path fill="#EAEAEA" d="M 30.65 90.5 C 30.65 92.13 30.65 165.5 30.65 165.5 L 33.65 165.5 L 33.65 90.5 L 30.65 90.5 Z"/>
   </g>
   <g opacity=".75">
    <path fill="#EAEAEA" d="M 22.65 110.5 C 22.65 111.262 22.65 145.5 22.65 145.5 L 25.65 145.5 L 25.65 110.5 L 22.65 110.5 Z"/>
   </g>
   <g opacity=".9">
    <path fill="#EAEAEA" d="M 14.65 123 C 14.65 123.218 14.65 133 14.65 133 L 17.65 133 L 17.65 123 L 14.65 123 Z"/>
   </g>
   <g opacity=".9">
    <path fill="#EAEAEA" d="M 6.65 126.5 C 6.65 126.565 6.65 129.5 6.65 129.5 L 9.65 129.5 L 9.65 126.5 L 6.65 126.5 Z"/>
   </g>
  </g>
  <path fill="#333333" d="M 128.794 56.627 C 126.935 56.642 124.995 56.693 122.958 56.777 C 87.926 58.217 64.68 72.679 56.044 98.406 C 53.636 105.58 53.335 108.207 53.335 122.002 L 53.335 137.525 L 49.335 139.588 C 44.266 142.2 39.335 147.423 36.13 153.57 C 34.077 157.507 32.972 159.89 32.972 167.327 C 32.972 174.763 34.077 177.366 36.13 181.303 C 40.522 189.728 47.672 195.734 56.534 198.439 C 60.444 199.633 69.293 199.585 73.753 198.346 C 80.911 196.357 81.006 194.817 74.403 187.895 C 62.313 175.22 59.765 166.175 59.769 135.969 C 59.773 105.571 62.332 95.826 73.425 83.963 C 80.423 76.478 85.551 73.241 96.558 69.354 C 110.929 64.278 125.013 62.438 137.565 63.996 C 156.993 66.408 170.582 72.22 180.894 82.531 C 193.616 95.254 196.229 104.356 196.233 135.969 C 196.238 166.226 193.912 174.697 182.14 187.281 C 175.889 193.963 175.88 193.981 177.995 196.096 C 179.161 197.262 182.354 198.552 185.093 198.963 C 199.658 201.147 212.778 194.625 219.548 181.836 C 221.96 177.278 222.917 175.184 222.919 167.436 C 222.921 159.996 221.927 157.509 219.874 153.57 C 216.669 147.423 211.736 142.2 206.667 139.588 L 202.667 137.525 L 202.667 122.002 C 202.667 108.274 202.36 105.56 200.003 98.537 C 193.854 80.219 182.824 69.488 162.808 62.344 C 150.938 58.108 141.81 56.512 128.794 56.627 L 128.794 56.627 Z M 65.067 137.037 C 62.446 137.037 62.396 137.198 62.091 146.523 C 61.92 151.741 62.295 158.492 62.925 161.525 C 65.217 172.568 74.783 188.648 80.411 190.922 C 83.271 192.077 83.723 192.112 85.78 191.322 C 88.654 190.219 87.674 187.594 82.243 181.852 C 73.218 172.308 69.469 162.784 68.382 146.637 C 67.752 137.28 67.666 137.037 65.067 137.037 L 65.067 137.037 Z M 190.935 137.037 C 188.336 137.037 188.252 137.28 187.622 146.637 C 186.535 162.784 182.784 172.308 173.759 181.852 C 168.536 187.374 167.358 190.231 169.868 191.285 C 172.72 192.483 176.71 190.66 180.683 186.344 C 185.634 180.963 191.462 169.31 193.065 161.584 C 193.702 158.518 194.082 151.741 193.911 146.523 C 193.606 137.198 193.556 137.037 190.935 137.037 L 190.935 137.037 Z"/>
 </g>
</svg>
